!!!COM: Corelli, Arcangelo
!!!OTL: 
!!!ONM: Opus 6, No. 3
!!!OMV: 2
!!!CDT: 1653/2/17/-1713/1/8/
!!!OCY: Italia
**kern	**kern	**kern	**kern	**kern	**kern	**kern
*clefC	*clefG	*clefG	*clefG	*clefC	*clefG	*clefG
*k[b-e-]	*k[b-e-]	*k[b-e-]	*k[b-e-]	*k[b-e-]	*k[b-e-]	*k[b-e-]
*g:	*g:	*g:	*g:	*g:	*g:	*g:
*M3/4	*M3/4	*M3/4	*M3/4	*M3/4	*M3/4	*M3/4
=1	=1	=1	=1	=1	=1	=1
2.r	2.r	2.r	2.r	2.r	2.r	4r
.	.	.	.	.	.	4gg
.	.	.	.	.	.	4gg
=2	=2	=2	=2	=2	=2	=2
2.r	2.r	2.r	2.r	2.r	2.r	4aa-
.	.	.	.	.	.	8aa-
.	.	.	.	.	.	8gg
.	.	.	.	.	.	8aa-
.	.	.	.	.	.	8ff
=3	=3	=3	=3	=3	=3	=3
2.r	2.r	2.r	2.r	2.r	2.r	4gg
.	.	.	.	.	.	8gg
.	.	.	.	.	.	8ff
.	.	.	.	.	.	8gg
.	.	.	.	.	.	8ee-
=4	=4	=4	=4	=4	=4	=4
2.r	2.r	2.r	2.r	2.r	2.r	4ff
.	.	.	.	.	.	4gg
.	.	.	.	.	.	4g
=5	=5	=5	=5	=5	=5	=5
2.r	2.r	2.r	2.r	2.r	4r	4cc
.	.	.	.	.	4cc	4ee-
.	.	.	.	.	4cc	4cc
=6	=6	=6	=6	=6	=6	=6
2.r	2.r	2.r	2.r	2.r	4ee-	4gg
.	.	.	.	.	8ee-	8gg
.	.	.	.	.	8dd	8ff#
.	.	.	.	.	8ee-	8gg
.	.	.	.	.	8cc	8aa
=7	=7	=7	=7	=7	=7	=7
2.r	2.r	2.r	2.r	2.r	4dd	4ff#
.	.	.	.	.	8dd	[2gg
.	.	.	.	.	8cc	.
.	.	.	.	.	8dd	.
.	.	.	.	.	8b-	.
=8	=8	=8	=8	=8	=8	=8
2.r	2.r	2.r	2.r	2.r	4cc	4gg]
.	.	.	.	.	4dd	8ff#
.	.	.	.	.	.	8gg
.	.	.	.	.	4d	8aa
.	.	.	.	.	.	8ff#
=9	=9	=9	=9	=9	=9	=9
2.r	4r	2.r	2.r	4r	4g	4gg
.	4g	.	.	4g	4gg	8b
.	.	.	.	.	.	8cc
.	4g	.	.	4g	4gg	8dd
.	.	.	.	.	.	8b
=10	=10	=10	=10	=10	=10	=10
2.r	4a-	2.r	2.r	4a-	4gg	4cc
.	8a-	.	.	8a-	4cc	4a-
.	8g	.	.	8g	.	.
.	8a-	.	.	8a-	4ff	4cc
.	8f	.	.	8f	.	.
=11	=11	=11	=11	=11	=11	=11
2.r	4g	2.r	2.r	4g	4ff	4b-
.	8g	.	.	8g	4b-	8g
.	8f	.	.	8f	.	8a-
.	8g	.	.	8g	[4ee-	8b-
.	8e-	.	.	8e-	.	8g
=12	=12	=12	=12	=12	=12	=12
2.r	4f	2.r	2.r	4f	4ee-]	4a-
.	4b-	.	.	2B-	2dd	4f
.	4B-	.	.	.	.	4b-
=13	=13	=13	=13	=13	=13	=13
4r	4r	4r	4r	4r	4ee-	4g
4G	4d	4b	4gg	4G	4b	4gg
4G	4g	4b	4gg	4G	4b	4gg
=14	=14	=14	=14	=14	=14	=14
4A-	4c	4cc	4gg	4A-	4cc	4gg
8A-	4f	8cc	4cc	8A-	8cc	4cc
8G	.	8b	.	8G	8b	.
8A-	4a-	8cc	4ff	8A-	8cc	4ff
8F	.	8dd	.	8F	8dd	.
=15	=15	=15	=15	=15	=15	=15
4G	4d	4b	4ff	4G	4b	4ff
8G	4g	[2cc	8ee-	8G	[2cc	8ee-
8F	.	.	8dd	8F	.	8dd
8G	4e-	.	8ee-	8G	.	8ee-
8E-	.	.	8gg	8E-	.	8gg
=16	=16	=16	=16	=16	=16	=16
4F	4a-	4cc]	8ff	4F	4cc]	8ff
.	.	.	8ee-	.	.	8ee-
4G	4d	2b	2dd	4G	2b	2dd
4GG	4g	.	.	4GG	.	.
=17	=17	=17	=17	=17	=17	=17
4C	2e-	4cc	4cc	4C	4cc	4cc
4c	.	8ee-	4aa-	4c	8ee-	4aa-
.	.	8dd	.	.	8dd	.
4A-	4r	8ee-	4aa-	4A-	8ee-	4aa-
.	.	8cc	.	.	8cc	.
=18	=18	=18	=18	=18	=18	=18
4B-	4r	4dd	4aa-	4B-	4dd	4aa-
8B-	4g	4dd	8gg	8B-	4dd	8gg
8A-	.	.	8ff	8A-	.	8ff
8B-	4g	4b-	4gg	8B-	4b-	4gg
8G	.	.	.	8G	.	.
=19	=19	=19	=19	=19	=19	=19
4A-	4c	4cc	4gg	4A-	4cc	4gg
4A-	4f	8cc	4cc	4A-	8cc	4cc
.	.	8b-	.	.	8b-	.
4F	4f	8cc	4ff	4F	8cc	4ff
.	.	8a-	.	.	8a-	.
=20	=20	=20	=20	=20	=20	=20
4G	4B-	4b-	4ff	4G	4b-	4ff
8G	4e-	4b-	4b-	8G	4b-	4b-
8F	.	.	.	8F	.	.
8G	4e-	4g	[4ee-	8G	4g	[4ee-
8E-	.	.	.	8E-	.	.
=21	=21	=21	=21	=21	=21	=21
4F	4c	4a-	4ee-]	4F	4a-	4ee-]
4B-	2B-	4f	2dd	4B-	4f	2dd
4BB-	.	4b-	.	4BB-	4b-	.
=22	=22	=22	=22	=22	=22	=22
8E-	2B-	2g	4ee-	8E-	2g	4ee-
8D	.	.	.	8D	.	.
8E-	.	.	4b-	8E-	.	4b-
8F	.	.	.	8F	.	.
8G	4e-	4b-	4b-	8G	4b-	4b-
8E-	.	.	.	8E-	.	.
=23	=23	=23	=23	=23	=23	=23
8A-	2e-	8cc	4b-	8A-	8cc	4b-
8G	.	8b-	.	8G	8b-	.
8A-	.	8cc	4e-	8A-	8cc	4e-
8B-	.	8dd	.	8B-	8dd	.
8c	4c	8ee-	[4a-	8c	8ee-	[4a-
8A-	.	8cc	.	8A-	8cc	.
=24	=24	=24	=24	=24	=24	=24
4B-	4f	4dd	4a-]	4B-	4dd	4a-]
4c	4e-	[2ee-	4g	4c	[2ee-	4g
4A-	4cc	.	4f	4A-	.	4f
=25	=25	=25	=25	=25	=25	=25
4B-	4b-	4ee-]	4g	4B-	4ee-]	4g
2BB-	2b-	2dd	2f	2BB-	2dd	2f
=26	=26	=26	=26	=26	=26	=26
4r	4g	2ee-	4e-	4r	2ee-	4e-
4E-	4e-	.	4gg	4E-	.	4gg
4E-	4g	4r	4ee-	4E-	4r	4ee-
=27	=27	=27	=27	=27	=27	=27
4D	4f	4r	2bb-	4D	4r	2bb-
4D	2B-	4ff	.	4D	4ff	.
4E	.	4gg	4r	4E	4gg	4r
=28	=28	=28	=28	=28	=28	=28
4F	4r	2cc	4r	4F	2cc	4r
4F	4f	.	4aa-	4F	.	4aa-
4F	4a-	4r	4ff	4F	4r	4ff
=29	=29	=29	=29	=29	=29	=29
4E-	4g	4r	4ccc	4E-	4r	4ccc
4E-	2c	4gg	8cc	4E-	4gg	8cc
.	.	.	8ee-	.	.	8ee-
4F	.	4aa-	8dd	4F	4aa-	8dd
.	.	.	8cc	.	.	8cc
=30	=30	=30	=30	=30	=30	=30
2G	4r	2.dd	4b	4G	2.dd	4b
.	4b	.	[2gg	4B	.	[2gg
4r	4b	.	.	4B	.	.
=31	=31	=31	=31	=31	=31	=31
2.r	4cc	2.aa-	4gg]	4c	2.aa-	4gg]
.	8dd	.	[2ff	8d	.	[2ff
.	8ee-	.	.	8e-	.	.
.	8cc	.	.	8c	.	.
.	8dd	.	.	8d	.	.
=32	=32	=32	=32	=32	=32	=32
2.r	4ee-	2.gg	4ff]	4e-	2.gg	4ff]
.	4g	.	4b-	4G	.	4b-
.	4g	.	[4ee-	4G	.	[4ee-
=33	=33	=33	=33	=33	=33	=33
2.r	4a	2.ff	4ee-]	4A	2.ff	4ee-]
.	8b	.	[2dd	8B	.	[2dd
.	8cc	.	.	8c	.	.
.	8a	.	.	8A	.	.
.	8b	.	.	8B	.	.
=34	=34	=34	=34	=34	=34	=34
4r	4cc	2.ee-	4dd]	4c	2.ee-	4dd]
4c	4g	.	4g	4c	.	4g
4e-	4g	.	[4cc	4e-	.	[4cc
=35	=35	=35	=35	=35	=35	=35
4F#	4a	2dd	4cc]	4F#	2dd	4cc]
4G	4b-	.	2b-	4G	.	2b-
4BB-	4g	4dd	.	4BB-	4dd	.
=36	=36	=36	=36	=36	=36	=36
4C	4e-	2cc	4a-	4C	2cc	4a-
4D	4d	.	4f#	4D	.	4f#
4E-	[4g	[4b-	[4g	4E-	[4b-	[4g
=37	=37	=37	=37	=37	=37	=37
4C	4g]	4b-]	4g]	4C	4b-]	4g]
4D	2d	2a	2f#	4D	2a	2f#
4DD	.	.	.	4DD	.	.
=38	=38	=38	=38	=38	=38	=38
2GG	2d	2g	4g	2GG	2g	4g
.	.	.	4dd	.	.	4dd
4r	4r	4r	4dd	4r	4r	4dd
=39	=39	=39	=39	=39	=39	=39
4r	4r	4r	4ee-	4r	4r	4ee-
4G	4e-	4b-	2e-	4G	4b-	2e-
4G	4e-	4b-	.	4G	4b-	.
=40	=40	=40	=40	=40	=40	=40
4A-	4e-	4cc	4r	4A-	4cc	4r
2AA-	2e-	2c	8cc	2AA-	2c	8cc
.	.	.	8dd	.	.	8dd
.	.	.	8ee-	.	.	8ee-
.	.	.	8cc	.	.	8cc
=41	=41	=41	=41	=41	=41	=41
4r	4r	4r	4ff	4r	4r	4ff
4A	4f	4cc	2f	4A	4cc	2f
4A	4f	4cc	.	4A	4cc	.
=42	=42	=42	=42	=42	=42	=42
4B-	4f	4dd	4r	4B-	4dd	4r
2BB-	2f	2d	4dd	2BB-	2d	4dd
.	.	.	4dd	.	.	4dd
=43	=43	=43	=43	=43	=43	=43
4r	4r	4r	4gg	4r	4r	4gg
4B	4g	4dd	2g	4B	4dd	2g
4B	4g	4dd	.	4B	4dd	.
=44	=44	=44	=44	=44	=44	=44
4c	4g	4ee-	4r	4c	4ee-	4r
2C	2g	2e-	8ee-	2C	2e-	8ee-
.	.	.	8ff	.	.	8ff
.	.	.	8gg	.	.	8gg
.	.	.	8ee-	.	.	8ee-
=45	=45	=45	=45	=45	=45	=45
4r	4r	4r	4aa-	4r	4r	4aa-
4c	4e-	4ee-	[2aa-	4c	4ee-	[2aa-
4d	4B-	4ff	.	4d	4ff	.
=46	=46	=46	=46	=46	=46	=46
4e-	2e-	2b-	4aa-]	4e-	2b-	4aa-]
4B-	.	.	8gg	4B-	.	8gg
.	.	.	8ff	.	.	8ff
4e-	4r	4b-	[4gg	4e-	4b-	[4gg
=47	=47	=47	=47	=47	=47	=47
4A	4r	4cc	4gg]	4A	4cc	4gg]
4A	4cc	4cc	[2ff	4A	4cc	[2ff
4B	4g	4dd	.	4B	4dd	.
=48	=48	=48	=48	=48	=48	=48
4c	2cc	2g	4ff]	4c	2g	4ff]
4G	.	.	8ee-	4G	.	8ee-
.	.	.	8dd	.	.	8dd
4c	4r	4g	[4ee-	4c	4g	[4ee-
=49	=49	=49	=49	=49	=49	=49
4F	4r	4a-	4ee-]	4F	4a-	4ee-]
4B-	4f	4a-	[2dd	4B-	4a-	[2dd
4BB-	4d	8g	.	4BB-	8g	.
.	.	8f	.	.	8f	.
=50	=50	=50	=50	=50	=50	=50
2E-	4g	2g	4dd]	2E-	2g	4dd]
.	4e-	.	4g	.	.	4g
4A-	4c	4g	[4cc	4A-	4g	[4cc
=51	=51	=51	=51	=51	=51	=51
2D	4f	2f	4cc]	2D	2f	4cc]
.	4d	.	4f	.	.	4f
4G	4B-	4f	[4b-	4G	4f	[4b-
=52	=52	=52	=52	=52	=52	=52
2C	4e-	2e-	4b-]	2C	2e-	4b-]
.	4c	.	4e-	.	.	4e-
4F	4A-	4e-	4a-	4F	4e-	[4a-
=53	=53	=53	=53	=53	=53	=53
2BB-	2f	2d	4a-	2BB-	2d	4a-]
.	.	.	4d	.	.	4d
4E-	4g	4b-	4g	4E-	4b-	4g
=54	=54	=54	=54	=54	=54	=54
2AA-	4e-	2a-	4c	2AA-	2a-	4c
.	4f	.	4d	.	.	4d
4EE-	4g	[4g	[4e-	4EE-	[4g	[4e-
=55	=55	=55	=55	=55	=55	=55
4AA-	4cc	4g]	4e-]	4AA-	4g]	4e-]
2BB-	4b-	2f	2d	2BB-	2f	2d
.	4B-	.	.	.	.	.
=56	=56	=56	=56	=56	=56	=56
4r	4G	2e-	4e-	4r	2e-	4e-
4E-	4g	.	[2cc	4E-	.	[2cc
4E-	4g	4r	.	4E-	4r	.
=57	=57	=57	=57	=57	=57	=57
4F	4a-	[2.dd	4cc]	4F	[2.dd	4cc]
4G	2g	.	8b	4G	.	8b
.	.	.	8cc	.	.	8cc
4GG	.	.	8dd	4GG	.	8dd
.	.	.	8b	.	.	8b
=58	=58	=58	=58	=58	=58	=58
4C	2.g	4dd]	4ee-	4C	4dd]	4ee-
4E-	.	4g	4cc	4E-	4g	4cc
4C	.	[4cc	4ee-	4C	[4cc	4ee-
=59	=59	=59	=59	=59	=59	=59
4G	4r	4cc]	4dd	4G	4cc]	4dd
4B-	4d	4b-	[2gg	4B-	4b-	[2gg
4B-	4d	4g	.	4B-	4g	.
=60	=60	=60	=60	=60	=60	=60
4c	4e-	4a	4gg]	4c	4a	4gg]
4d	2d	[2aa	8ff#	4d	[2aa	8ff#
.	.	.	8gg	.	.	8gg
4D	.	.	8aa	4D	.	8aa
.	.	.	8ff#	.	.	8ff#
=61	=61	=61	=61	=61	=61	=61
4r	4d	4aa]	4bb-	4r	4aa]	4bb-
[2G	4b-	4dd	4gg	[2G	4dd	4gg
.	4b-	4gg	4bb-	.	4gg	4bb-
=62	=62	=62	=62	=62	=62	=62
4G]	4cc	4cc	4aa	4G]	4cc	4aa
8F	4dd	4a	[2dd	8F	4a	[2dd
8E-	.	.	.	8E-	.	.
8F	4d	4dd	.	8F	4dd	.
8D	.	.	.	8D	.	.
=63	=63	=63	=63	=63	=63	=63
4E-	4r	2g	4dd]	4E-	2g	4dd]
4E-	4cc	.	4g	4E-	.	4g
4C	4ee-	4ee-	4cc	4C	4ee-	4cc
=64	=64	=64	=64	=64	=64	=64
2D	2a	2f#	2cc	2D	2f#	2cc
[4C	4e-	[4g	[4b-	[4C	[4g	[4b-
=65	=65	=65	=65	=65	=65	=65
4C]	4g	4g]	4b-]	4C]	4g]	4b-]
2D	2d	2f#	2a	2D	2f#	2a
=66	=66	=66	=66	=66	=66	=66
2GG	2d	2g	2g	2GG	2g	4g
.	.	.	.	.	.	4gg
4r	4r	4r	4r	4r	4r	4gg
=67	=67	=67	=67	=67	=67	=67
2.r	2.r	2.r	2.r	2.r	2.r	4aa-
.	.	.	.	.	.	8aa-
.	.	.	.	.	.	8gg
.	.	.	.	.	.	8aa-
.	.	.	.	.	.	8ff
=68	=68	=68	=68	=68	=68	=68
2.r	2.r	2.r	2.r	2.r	4r	4gg
.	.	.	.	.	4gg	4ee-
.	.	.	.	.	4gg	4ee-
=69	=69	=69	=69	=69	=69	=69
2.r	2.r	2.r	2.r	2.r	4aa-	4ff
.	.	.	.	.	8aa-	8ff
.	.	.	.	.	8gg	8ee-
.	.	.	.	.	8aa-	8ff
.	.	.	.	.	8ff	8dd
=70	=70	=70	=70	=70	=70	=70
2.r	2.r	2.r	2.r	2.r	4gg	4ee-
.	.	.	.	.	8ee-	8gg
.	.	.	.	.	8ff	8aa-
.	.	.	.	.	8ee-	8gg
.	.	.	.	.	8ff	8aa-
=71	=71	=71	=71	=71	=71	=71
2.r	2.r	2.r	2.r	2.r	8dd	8ff
.	.	.	.	.	8ee-	8gg
.	.	.	.	.	8dd	8ff
.	.	.	.	.	8ee-	8gg
.	.	.	.	.	8dd	8ff
.	.	.	.	.	8ee-	8gg
=72	=72	=72	=72	=72	=72	=72
2.r	2.r	2.r	2.r	2.r	8cc	8ee-
.	.	.	.	.	8b	8dd
.	.	.	.	.	8cc	8ee-
.	.	.	.	.	8dd	8ff
.	.	.	.	.	8cc	8ee-
.	.	.	.	.	8dd	8ff
=73	=73	=73	=73	=73	=73	=73
4r	4r	4r	4r	4r	4b	4dd
4G	4d	4gg	8b	4G	4gg	8b
.	.	.	8cc	.	.	8cc
4G	4g	4gg	8dd	4G	4gg	8dd
.	.	.	8b	.	.	8b
=74	=74	=74	=74	=74	=74	=74
4A-	4c	4gg	4cc	4A-	4gg	4cc
8A-	4f	4cc	4a-	8A-	4cc	4a-
8G	.	.	.	8G	.	.
8A-	4a-	4ff	4cc	8A-	4ff	4cc
8F	.	.	.	8F	.	.
=75	=75	=75	=75	=75	=75	=75
4G	4B-	4ff	4b-	4G	4ff	4b-
8G	4e-	4b-	8g	8G	4b-	8g
8F	.	.	8a-	8F	.	8a-
8G	4g	[4ee-	8b-	8G	[4ee-	8b-
8E-	.	.	8g	8E-	.	8g
=76	=76	=76	=76	=76	=76	=76
4F	4cc	4ee-]	4a-	4F	4ee-]	4a-
4B-	2b-	2dd	4f	4B-	2dd	4f
4BB-	.	.	4b-	4BB-	.	4b-
=77	=77	=77	=77	=77	=77	=77
2E-	2b-	2ee-	2g	4E-	4ee-	4g
.	.	.	.	8E-	4ee-	4gg
.	.	.	.	8F	.	.
4r	4r	4r	4r	8G	4ee-	4gg
.	.	.	.	8A-	.	.
=78	=78	=78	=78	=78	=78	=78
4r	4r	4r	4r	4B-	4ee-	4gg
8BB-	4f	4bb-	4dd	8BB-	4dd	4ff
8C	.	.	.	8C	.	.
8D	4f	4bb-	4dd	8D	4r	4r
8E-	.	.	.	8E-	.	.
=79	=79	=79	=79	=79	=79	=79
2F	2f	4bb-	4dd	4F	4r	4r
.	.	4aa-	4cc	8F	4ff	4aa-
.	.	.	.	8G	.	.
4r	4r	4r	4r	8A-	4ff	4aa-
.	.	.	.	8B-	.	.
=80	=80	=80	=80	=80	=80	=80
4r	4r	4r	4r	4c	4ff	4aa-
8C	4g	4ccc	4ee-	8C	4ee-	4gg
8D	.	.	.	8D	.	.
8E-	4g	4ccc	4ee-	8E-	4r	4r
8F	.	.	.	8F	.	.
=81	=81	=81	=81	=81	=81	=81
2G	2g	4ccc	4dd	4G	4r	4r
.	.	4bb	4gg	2GG	4bb	4gg
4r	4r	4r	4gg	.	4bb	4gg
=82	=82	=82	=82	=82	=82	=82
4r	4r	4r	[2.aa-	4r	4ccc	[2.aa-
4c	4e-	4ee-	.	4c	4ee-	.
4d	4B-	4ff	.	4d	4ff	.
=83	=83	=83	=83	=83	=83	=83
4e-	2e-	2b-	4aa-]	4e-	2b-	4aa-]
4E-	.	.	4gg	4e-	.	4gg
4r	4r	4r	4aa	4e-	4r	4aa
=84	=84	=84	=84	=84	=84	=84
4r	4r	4r	[2.bb-	4d	4r	[2.bb-
4d	4f	4ff	.	4d	4ff	.
4e	4c	4gg	.	4e	4gg	.
=85	=85	=85	=85	=85	=85	=85
4f	2f	2cc	4bb-]	4f	2cc	4bb-]
4F	.	.	4aa-	4F	.	4aa-
4r	4r	4r	4bb-	4G	4r	4bb-
=86	=86	=86	=86	=86	=86	=86
4r	4r	4r	4ccc	4A-	4r	4ccc
4D-	4b-	4ff	8bb-	4D-	4ff	8bb-
.	.	.	8aa-	.	.	8aa-
4BB-	4dd-	4bb-	8gg	4BB-	4bb-	8gg
.	.	.	8ff	.	.	8ff
=87	=87	=87	=87	=87	=87	=87
4C	2cc	4.gg	4.ee	4C	4.gg	4.ee
4BB-	.	.	.	4BB-	.	.
.	.	8gg	8ee	.	8gg	8ee
4AA-	4c	4aa-	[4ff	4AA-	4aa-	[4ff
=88	=88	=88	=88	=88	=88	=88
4BB-	4d-	4ff	8ff]	4BB-	4ff	8ff]
.	.	.	8gg	.	.	8gg
4C	2c	2ee	2gg	4C	2ee	2gg
4CC	.	.	.	4CC	.	.
=89	=89	=89	=89	=89	=89	=89
4r	2c	2ff	4ff	4r	2ff	4ff
4f	.	.	4a-	4f	.	4a-
4f	4r	4r	4f	4f	4r	4f
=90	=90	=90	=90	=90	=90	=90
4f	4r	4r	4g	4f	4r	4g
4e-	4g	4cc	4c	4e-	4cc	4c
4e-	4cc	4c	4r	4e-	4c	4r
=91	=91	=91	=91	=91	=91	=91
4e-	4a	4f	4r	4e-	4f	4r
2d-	4b-	4B-	[2ff	2d-	4B-	[2ff
.	4f	4r	.	.	4r	.
=92	=92	=92	=92	=92	=92	=92
2.c	4cc	[2.gg	4ff]	2.c	[2.gg	4ff]
.	8c	.	8ee	.	.	8ee
.	8d	.	8ff	.	.	8ff
.	8e	.	8gg	.	.	8gg
.	8c	.	8ee	.	.	8ee
=93	=93	=93	=93	=93	=93	=93
4r	8f	4gg]	2.aa-	4r	4gg]	2.aa-
.	8e	.	.	.	.	.
[2F	8f	4cc	.	[2F	4cc	.
.	8g	.	.	.	.	.
.	8a-	4ff	.	.	4ff	.
.	8f	.	.	.	.	.
=94	=94	=94	=94	=94	=94	=94
4F]	4g	4bb-	[2.gg	4F]	4bb-	[2.gg
8E	2c	8gg	.	8E	8gg	.
8F	.	8aa-	.	8F	8aa-	.
8G	.	8bb-	.	8G	8bb-	.
8E	.	8gg	.	8E	8gg	.
=95	=95	=95	=95	=95	=95	=95
2.A-	4r	4ccc	4gg]	2.A-	4ccc	4gg]
.	4f	[2cc	8ff	.	[2cc	8ff
.	.	.	8aa-	.	.	8aa-
.	4f	.	8gg	.	.	8gg
.	.	.	8ff	.	.	8ff
=96	=96	=96	=96	=96	=96	=96
2.G	4g	4cc]	4ee-	2.G	4cc]	4ee-
.	8g	8b	[2dd	.	8b	[2dd
.	8a	8cc	.	.	8cc	.
.	8b	8dd	.	.	8dd	.
.	8g	8b	.	.	8b	.
=97	=97	=97	=97	=97	=97	=97
4r	4cc	2.ee-	4dd]	4r	2.ee-	4dd]
4C	8e-	.	4g	4C	.	4g
.	8f	.	.	.	.	.
4C	8g	.	4cc	4C	.	4cc
.	8e-	.	.	.	.	.
=98	=98	=98	=98	=98	=98	=98
4C	4f	2.dd	4ff	4C	2.dd	4ff
4BB-	4g	.	4dd	4BB-	.	4dd
4BB-	4g	.	4gg	4BB-	.	4gg
=99	=99	=99	=99	=99	=99	=99
4BB-	4g	4.cc	4ee	4BB-	4.cc	4ee
2AA-	2a-	.	4cc	2AA-	.	4cc
.	.	8ee-	.	.	8ee-	.
.	.	8dd	4ff	.	8dd	4ff
.	.	8cc	.	.	8cc	.
=100	=100	=100	=100	=100	=100	=100
2GG	2d	2b	8r	2GG	2b	8r
.	.	.	8gg	.	.	8gg
.	.	.	8ff	.	.	8ff
.	.	.	8gg	.	.	8gg
4r	4r	4r	8dd	4r	4r	8dd
.	.	.	8gg	.	.	8gg
=101	=101	=101	=101	=101	=101	=101
2GG	2g	4cc	8ee-	2GG	4cc	8ee-
.	.	.	8gg	.	.	8gg
.	.	4b-	8dd	.	4b-	8dd
.	.	.	8gg	.	.	8gg
4r	4r	4a-	8cc	4r	4a-	8cc
.	.	.	8gg	.	.	8gg
=102	=102	=102	=102	=102	=102	=102
2GG	2d	8g	4b	2GG	8g	4b
.	.	8gg	.	.	8gg	.
.	.	8ff	4g	.	8ff	4g
.	.	8gg	.	.	8gg	.
4r	4r	8dd	4b	4r	8dd	4b
.	.	8gg	.	.	8gg	.
=103	=103	=103	=103	=103	=103	=103
2GG	2g	8ee-	4cc	2GG	8ee-	4cc
.	.	8gg	.	.	8gg	.
.	.	8dd	4b-	.	8dd	4b-
.	.	8gg	.	.	8gg	.
4r	4r	8cc	4a-	4r	8cc	4a-
.	.	8gg	.	.	8gg	.
=104	=104	=104	=104	=104	=104	=104
4GG	2d	4b	2g	8GG	4b	2g
.	.	.	.	8G	.	.
4G	.	4g	.	8F	4g	.
.	.	.	.	8G	.	.
4F	4d	4b	4r	8D	4b	4r
.	.	.	.	8G	.	.
=105	=105	=105	=105	=105	=105	=105
4E-	4g	4cc	2g	8E-	4cc	2g
.	.	.	.	8G	.	.
4D	4f	4g	.	8D	4g	.
.	.	.	.	8G	.	.
4C	4e-	4cc	4r	8C	4cc	4r
.	.	.	.	8G	.	.
=106	=106	=106	=106	=106	=106	=106
4BB	4d	2dd	2g	8BB	2dd	2g
.	.	.	.	8G	.	.
4GG	4G	.	.	8GG	.	.
.	.	.	.	8G	.	.
4BB	4g	4r	4r	8BB	4r	4r
.	.	.	.	8G	.	.
=107	=107	=107	=107	=107	=107	=107
8C	8e-	2ee-	2g	8C	2ee-	2g
8BB	8d	.	.	8BB	.	.
8C	8e-	.	.	8C	.	.
8D	8f	.	.	8D	.	.
8E-	8g	4r	4r	8E-	4r	4r
8F	8a-	.	.	8F	.	.
=108	=108	=108	=108	=108	=108	=108
2G	2d	2b	2g	2G	2b	2g
4r	4r	4r	4r	4r	4r	4r
=109	=109	=109	=109	=109	=109	=109
2r	2r	2r	2r	2r	2r	2r
4E	4g	4g	4cc	4E	4g	4cc
=110	=110	=110	=110	=110	=110	=110
2F	2c	4g	2a-	2F	4g	2a-
.	.	4c	.	.	4c	.
4F	4a-	4f	4dd	4F	4f	4dd
=111	=111	=111	=111	=111	=111	=111
2G	2d	2f	2b	2G	2f	2b
[4F#	[4a	[4e-	[4cc	[4F#	[4e-	[4cc
=112	=112	=112	=112	=112	=112	=112
4F#]	4a]	4e-]	4cc]	4F#]	4e-]	4cc]
2G	2g	2d	4.cc	2G	2d	4.cc
.	.	.	8b	.	.	8b
=113	=113	=113	=113	=113	=113	=113
2.C	2.g	2.c	2.cc	2.C	2.c	2.cc
==	==	==	==	==	==	==
*-	*-	*-	*-	*-	*-	*-
!!!RWG: This file only contains pitch and duration data.
!!!RWG: Transposing instruments are not transposed.
!!!RWG: Durations of rests and tied notes may be interpreted.
!!!RWG: Key is interpreted using the Humdrum key tool.
!!!SCA: 
!!!YOR: Chrysander Edition
!!!AGN: concerto grosso
!!!AFT: stage1
!!!ENC: F. Bennion
!!!END: 1997/04/15
!!!AST: baroque
!!!YEC: Copyright 1994, Center for Computer Assisted Research in the Humanities
!!!YEM: Rights to all derivative electronic formats reserved.
!!!YEM: Refer to licensing agreement for further details.
!!!YEN: United States of America
!!!EED: W.B. Hewlett
!!!KEY: 2293627694
!!!EMD: Converted from MuseData to Humdrum Aug 9, 1999, by Bret Aarden using muse2kern.
!!!VTS: 2122910605
